X: 0591
T: BUNKER HILL HORNPIPE
B: Oliver Ditson "The Boston Collection of Instrumental Music" 1910 p.59 #1
F: http://conquest.imslp.info/files/imglnks/usimg/8/8f/IMSLP175643-PMLP309456-bostoncollection00bost_bw.pdf
M: 2/4
L: 1/16
K: F
cB |\
Acfc A2cB | Acfc {A}a2gf | ecge bege | fagf edcB |\
Acfc A2cB | Acfc a2gf | ecge bege | [f2A2][a2c2][f2A2] :|
|: ga |\
bgbg gege | afaf cAcA | Bcde fgab | a2g2g2 ga |\
bgbg gege | afaf cAcA | dBFB ecBG | [f2A2][f2A2][f2A2] :|

%%sep 1 1 500
%%sep 1 1 500
